images/icons/facebook-icon.svg

<svg width="32" height="56" viewBox="0 0 32 56" fill="none" xmlns="http://www.w3.org/2000/svg">
<path d="M7.82702 55.7083H19.4937V32.3458H30.0054L31.1604 20.7375H19.4937V14.875C19.4937 14.1014 19.801 13.3595 20.348 12.8126C20.8949 12.2656 21.6368 11.9583 22.4104 11.9583H31.1604V0.291626H22.4104C18.5426 0.291626 14.8333 1.82808 12.0984 4.56299C9.36347 7.29789 7.82702 11.0072 7.82702 14.875V20.7375H1.99368L0.838684 32.3458H7.82702V55.7083Z" fill="#CCCCCC"/>
</svg>

<svg xmlns="http://www.w3.org/2000/svg" width="32" height="56" fill="none"><path fill="#CCC" d="M7.827 55.708h11.667V32.346h10.511l1.155-11.608H19.494v-5.863a2.916 2.916 0 0 1 2.916-2.917h8.75V.292h-8.75A14.583 14.583 0 0 0 7.827 14.875v5.863H1.994L.839 32.346h6.988v23.362Z"/></svg>
